Adwaita++/apps/symbolic/ocsstore-symbolic.svg

<svg height="16" width="16" xmlns="http://www.w3.org/2000/svg">
  <path d="m8.0000004.49960034c-1.7934554.003-3.5262844.64882996-4.8844654 1.82000996l2.047626 2.04808c.179909-.0762.378475-.11809.586839-.11809h4.5c.208365 0 .40693.0419.586839.11809l2.051232-2.05169c-1.359635-1.17063-3.0938876-1.81512996-4.8880706-1.81639996zm-5.6835944 2.61192996c-1.170636 1.35972-1.815134 3.0938-1.816406 4.8880701.0032 1.79336.64883 3.5262796 1.820012 4.8844596l1.929988-1.92999v-.70447-.7499996-3.7500001c0-.20837.042-.40684.118089-.58684zm11.363582.004-2.048077 2.04763c.07609.18.118089.37847.118089.58684v4.4999997c0 .20827-.042.40684-.118089.58684l2.051682 2.05123c1.170636-1.35973 1.815133-3.0938896 1.816407-4.8880696-.0032-1.7934601-.648831-3.5262901-1.820012-4.8844701zm-2.843149 8.5163797c-.179909.0762-.378474.11809-.586839.11809h-3.375l-2.625 2.625v-1.82948l-1.138071 1.13807c1.359636 1.17064 3.093889 1.81504 4.8880714 1.81641 1.793454-.003 3.5262816-.64883 4.8844646-1.82002z" fill="#474747"/>
</svg>

<svg xmlns="http://www.w3.org/2000/svg" width="16" height="16" version="1.1">
 <path style="isolation:isolate;fill:#444" d="M 8.0000004,0.49960034 C 6.206545,0.50260034 4.473716,1.1484303 3.115535,2.3196103 l 2.047626,2.04808 C 5.34307,4.2914903 5.541636,4.2496003 5.75,4.2496003 h 4.5 c 0.208365,0 0.40693,0.0419 0.586839,0.11809 l 2.051232,-2.05169 C 11.528436,1.1453703 9.7941834,0.50087034 8.0000004,0.49960034 Z M 2.316406,3.1115303 C 1.14577,4.4712503 0.501272,6.2053303 0.5,7.9996004 0.5032,9.7929604 1.14883,11.52588 2.320012,12.88406 L 4.25,10.95407 V 10.2496 9.4996004 5.7496003 c 0,-0.20837 0.042,-0.40684 0.118089,-0.58684 z m 11.363582,0.004 -2.048077,2.04763 c 0.07609,0.18 0.118089,0.37847 0.118089,0.58684 V 10.25 c 0,0.20827 -0.042,0.40684 -0.118089,0.58684 l 2.051682,2.05123 C 14.854229,11.52834 15.498726,9.7941804 15.5,8.0000004 15.4968,6.2065403 14.851169,4.4737103 13.679988,3.1155303 Z M 10.836839,11.63191 C 10.65693,11.70811 10.458365,11.75 10.25,11.75 H 6.875 L 4.25,14.375 v -1.82948 l -1.138071,1.13807 c 1.359636,1.17064 3.093889,1.81504 4.8880714,1.81641 1.793454,-0.003 3.5262816,-0.64883 4.8844646,-1.82002 z"/>
</svg>
